public/img/fb.svg

<svg width="25" height="24" viewBox="0 0 25 24" fill="none" xmlns="http://www.w3.org/2000/svg">
<g clip-path="url(#clip0)">
<path d="M18.4991 0.00499355L15.3868 0C11.8904 0 9.63078 2.31826 9.63078 5.90637V8.6296H6.50158C6.23117 8.6296 6.01221 8.84882 6.01221 9.11922V13.0649C6.01221 13.3353 6.23142 13.5542 6.50158 13.5542H9.63078V23.5104C9.63078 23.7808 9.84975 23.9998 10.1202 23.9998H14.2029C14.4733 23.9998 14.6922 23.7805 14.6922 23.5104V13.5542H18.351C18.6214 13.5542 18.8404 13.3353 18.8404 13.0649L18.8419 9.11922C18.8419 8.98939 18.7902 8.86505 18.6986 8.77317C18.6069 8.68129 18.4821 8.6296 18.3523 8.6296H14.6922V6.32108C14.6922 5.21152 14.9567 4.64825 16.402 4.64825L18.4986 4.6475C18.7687 4.6475 18.9877 4.42828 18.9877 4.15813V0.494361C18.9877 0.22446 18.769 0.0054929 18.4991 0.00499355Z" fill="#333333"/>
</g>
<defs>
<clipPath id="clip0">
<rect x="0.5" width="24" height="23.9998" fill="white"/>
</clipPath>
</defs>
</svg>

<svg width="25" height="24" fill="none" xmlns="http://www.w3.org/2000/svg"><g clip-path="url(#clip0)"><path d="M18.5.005L15.386 0C11.89 0 9.63 2.318 9.63 5.906V8.63H6.5a.49.49 0 00-.489.49v3.945c0 .27.22.49.49.49H9.63v9.955c0 .27.219.49.49.49h4.082c.27 0 .49-.22.49-.49v-9.956h3.658a.49.49 0 00.49-.49V9.12a.49.49 0 00-.489-.49h-3.66V6.322c0-1.11.265-1.673 1.71-1.673h2.097a.49.49 0 00.489-.49V.494a.49.49 0 00-.489-.489z" fill="#333"/></g><defs><clipPath id="clip0"><path fill="#fff" d="M.5 0h24v24H.5z"/></clipPath></defs></svg>
